X:194
T:He'll be your friend
C:Newfound Road - Full Heart
N: - mandolin: Rob Baker - Transcribed by Philippe Colleu
R:bluegrass
L:1/8
Q:1/4=220
M:4/4
K:C
"(118 bpm)""A"z2 ^fe cB A2 | B/z/^c ee c/z/e e^f | ed B/^c/B AB cA | "D"B^c dB A^F DE | 
^FA B^c de ^fa | "F#m"e^f fa f2 af | "E"e^c ^fc ed =c^c | "A"A2 {e}^fa ba c'/z/^c' | 
a2 a2 {d}e2 ae | ga ed {c}^cA dc | A8 | 


